X:1
T:Thy Word Have I Hid in My Heart
T:Thy Word Have I Hid in My Heart
T:Hubert Platt Main
T:Frances Jane (Fanny) Crosby, 1912
T:Public Domain Courtesy of the Cyber Hymnal™
C:Hubert Platt Main
Z:Public Domain
Z:Courtesy of the Cyber Hymnal™
%%score ( 1 2 ) ( 3 4 )
L:1/8
Q:1/4=103
M:4/4
K:C
V:1 treble 
V:2 treble 
V:3 bass 
V:4 bass 
V:1
 [EG]2 | [Ec]2 [GB][FA] [EG]2 [DF][CE] | [B,G]2 [B,D]2 z2 [CE]2 | [DF]2 [FB][FA] G2 [B,=D][B,^D] | %4
w: 1.~O|Book, that with rev- erence I|hon- or, What|joy in thy pag- es I|
w: 2.~O|Book, that, in- spired, is my|ref- uge, My|com- fort by night and by|
w: 3.~O|Book, that is firm and a-|bid- ing, Whose|truth is the light of my|
w: 4.~O|Book, where my Sav- ior re-|veal- eth His|won- der- ful prom- ise di-|
 [CE]6 [EG]2 | [FA]2 [FA][FA] [FB]2 [FA][FG] | [EG]2 [Ec]2 z2 [^Fc]2 | %7
w: see! O|Book of my child- hood de-|vo- tion, More|
w: day; Whose|pre- cepts have led me to|Je- sus, And|
w: soul; Whose|coun- sel is ev- er be-|fore me When|
w: vine, That|if un- to death I am|faith- ful, A|
 [GB]2 [^FA][GB] (dc)[FB][FA] | G6 ||"^Refrain" [FG]2 | [Ec]2 [GB][FA] [EG]2 [CE][B,F] | G6 [EG]2 | %12
w: pre- cious than ru- * bies to|me.||||
w: taught me to watch * and to|pray.|Thy|law have I hid in my|heart, My|
w: waves of ad- ver- * si- ty|roll.||||
w: crown at His hand * will be|mine.||||
 [FA]2 [FA][GA] [^FA] [Fd]2 [FA] | (B4 A2) [DG]2 | [Gc]2 [CE][B,F] [CG]2 [E_B][GB] | %15
w: |||
w: boast and my glo- ry thou|art; * O|Book that my fa- thers have|
w: |||
w: |||
 [G_B]4 [FA]2 [^DA]2 | [EG]2 [EA][Ec] [Fd]2 [FA][FB] | [Ec]6 |] %18
w: |||
w: trust- ed, Thy|law have I hid in my|heart!|
w: |||
w: |||
V:2
 x2 | x8 | x8 | x4 (G^D) x2 | x8 | x8 | x8 | x4 ^F2 x2 | G6 || x2 | x8 | (C2 F2 E2) x2 | x8 | %13
 F6 x2 | x8 | x8 | x8 | x6 |] %18
V:3
 [C,G,]2 | [C,G,]2 [C,A,][C,B,] [C,C]2 [B,,G,][C,G,] | [G,,G,]2 [G,,G,]2 z2 [G,,G,]2 | %3
 [G,,G,]2 [G,D][G,C] [G,B,]2 [G,,G,][G,,G,] | [C,G,]6 [C,C]2 | %5
 [F,C]2 [F,C][F,C] [D,G,]2 [G,,B,][G,,B,] | [C,C]2 [C,G,]2 z2 [A,,D]2 | %7
 [D,D]2 [D,D][D,D] (A,E)[E,D][E,C] | [G,B,]6 || [G,B,]2 | (CG,)[C,A,][C,B,] [C,C]2 [C,G,][D,G,] | %11
 G,6 [C,C]2 | [F,C]2 [F,C][E,^C] [D,D] [D,A,]2 [D,D] | (D4 C2) B,2 | %14
 [E,C]2 [C,G,][D,G,] [E,G,]2 [C,G,][E,C] | [F,C]4 [F,C]2 [^F,C]2 | %16
 [G,C]2 [G,C]G, [G,,B,]2 [G,,D][G,,G,] | [C,G,]6 |] %18
V:4
 x2 | x8 | x8 | x8 | x8 | x8 | x8 | x4 D,2 x2 | x6 || x2 | C,2 x6 | (E,2 D,2 C,2) x2 | x8 | %13
 G,6 (G,F,) | x8 | x8 | x3 G, x4 | x6 |] %18

